app/images/icon/map.svg

<svg width="24" height="33" viewBox="0 0 24 33" fill="none" xmlns="http://www.w3.org/2000/svg">
<path d="M12 0C5.38306 0 0 5.38306 0 12C0 14.1784 0.976941 16.5212 1.01788 16.62C1.33341 17.3689 1.956 18.5322 2.40494 19.2141L10.6327 31.6807C10.9694 32.1918 11.4678 32.4847 12 32.4847C12.5322 32.4847 13.0306 32.1918 13.3673 31.6814L21.5958 19.2141C22.0454 18.5322 22.6673 17.3689 22.9828 16.62C23.0238 16.5219 24 14.1791 24 12C24 5.38306 18.6169 0 12 0ZM21.6812 16.0722C21.3995 16.7435 20.82 17.8257 20.4169 18.4369L12.1885 30.9042C12.0261 31.1506 11.9746 31.1506 11.8122 30.9042L3.58376 18.4369C3.18071 17.8257 2.60118 16.7428 2.31953 16.0715C2.30753 16.0426 1.41176 13.8861 1.41176 12C1.41176 6.16165 6.16165 1.41177 12 1.41177C17.8384 1.41177 22.5882 6.16165 22.5882 12C22.5882 13.8889 21.6904 16.0511 21.6812 16.0722Z" fill="black"/>
<path d="M11.9999 5.64777C8.49662 5.64777 5.64697 8.49812 5.64697 12.0007C5.64697 15.5033 8.49662 18.3537 11.9999 18.3537C15.5032 18.3537 18.3529 15.5033 18.3529 12.0007C18.3529 8.49812 15.5032 5.64777 11.9999 5.64777ZM11.9999 16.9419C9.27592 16.9419 7.05874 14.7254 7.05874 12.0007C7.05874 9.27601 9.27592 7.05953 11.9999 7.05953C14.7239 7.05953 16.9411 9.27601 16.9411 12.0007C16.9411 14.7254 14.7239 16.9419 11.9999 16.9419Z" fill="black"/>
</svg>

<svg width="24" height="33" fill="none" xmlns="http://www.w3.org/2000/svg"><path d="M12 0C5.383 0 0 5.383 0 12c0 2.178.977 4.521 1.018 4.62.315.749.938 1.912 1.387 2.594l8.228 12.467c.336.51.835.804 1.367.804s1.03-.293 1.367-.804l8.229-12.467a19.277 19.277 0 001.387-2.594C23.023 16.522 24 14.18 24 12c0-6.617-5.383-12-12-12zm9.681 16.072a17.727 17.727 0 01-1.264 2.365l-8.229 12.467c-.162.247-.213.247-.376 0L3.584 18.437A17.735 17.735 0 012.32 16.07c-.012-.028-.908-2.185-.908-4.071C1.412 6.162 6.162 1.412 12 1.412c5.838 0 10.588 4.75 10.588 10.588 0 1.889-.898 4.051-.907 4.072z" fill="#000"/><path d="M12 5.648A6.36 6.36 0 005.647 12 6.36 6.36 0 0012 18.354 6.36 6.36 0 0018.353 12 6.36 6.36 0 0012 5.648zm0 11.294A4.947 4.947 0 017.059 12a4.947 4.947 0 014.94-4.941A4.947 4.947 0 0116.942 12 4.947 4.947 0 0112 16.943z" fill="#000"/></svg>
